icons/file-diff-24.svg

<svg width="24" height="24" viewBox="0 0 24 24" fill="none" xmlns="http://www.w3.org/2000/svg">
<path d="M12.5 6.75C12.5 6.33579 12.1642 6 11.75 6C11.3358 6 11 6.33579 11 6.75V9H8.75C8.33579 9 8 9.33579 8 9.75C8 10.1642 8.33579 10.5 8.75 10.5H11V12.75C11 13.1642 11.3358 13.5 11.75 13.5C12.1642 13.5 12.5 13.1642 12.5 12.75V10.5H14.75C15.1642 10.5 15.5 10.1642 15.5 9.75C15.5 9.33579 15.1642 9 14.75 9H12.5V6.75Z" fill="#24292E"/>
<path d="M8.75 16C8.33579 16 8 16.3358 8 16.75C8 17.1642 8.33579 17.5 8.75 17.5H14.75C15.1642 17.5 15.5 17.1642 15.5 16.75C15.5 16.3358 15.1642 16 14.75 16H8.75Z" fill="#24292E"/>
<path fill-rule="evenodd" clip-rule="evenodd" d="M5 1C3.89543 1 3 1.89543 3 3V21C3 22.1046 3.89543 23 5 23H19C20.1046 23 21 22.1046 21 21V7.01777C21 6.48733 20.7893 5.97863 20.4142 5.60355L16.3964 1.58579C16.0214 1.21071 15.5127 1 14.9822 1H5ZM4.5 3C4.5 2.72386 4.72386 2.5 5 2.5H14.9822C15.1148 2.5 15.242 2.55268 15.3358 2.64645L19.3536 6.66421C19.4473 6.75798 19.5 6.88516 19.5 7.01777V21C19.5 21.2761 19.2761 21.5 19 21.5H5C4.72386 21.5 4.5 21.2761 4.5 21V3Z" fill="#24292E"/>
</svg>

<svg xmlns="http://www.w3.org/2000/svg" width="24" height="24" viewBox="0 0 24 24"><path d="M12.5 6.75a.75.75 0 00-1.5 0V9H8.75a.75.75 0 000 1.5H11v2.25a.75.75 0 001.5 0V10.5h2.25a.75.75 0 000-1.5H12.5V6.75zM8.75 16a.75.75 0 000 1.5h6a.75.75 0 000-1.5h-6z"/><path fill-rule="evenodd" d="M5 1a2 2 0 00-2 2v18a2 2 0 002 2h14a2 2 0 002-2V7.018a2 2 0 00-.586-1.414l-4.018-4.018A2 2 0 0014.982 1H5zm-.5 2a.5.5 0 01.5-.5h9.982a.5.5 0 01.354.146l4.018 4.018a.5.5 0 01.146.354V21a.5.5 0 01-.5.5H5a.5.5 0 01-.5-.5V3z"/></svg>
